X: 15631
T: God Rest Ye Merry
R: jig
M: 6/8
K: Eminor
B|BE B/c/B/A/|GF EE/D/|EE/F/ GA|Be d/e/d/A/|
BE B/c/B/A/|GF EE/F/|GB A/G/F|E2 E:|
B/B/|cA Bc|de/d/ B>A|GB E/F/G|AD FA|
BE B/c/B/A/|GF EE/F/|GB A/G/F|E2 E:|

